X: 20231
T: Joe Cassidy's
R: reel
M: 4/4
K: Amajor
eA~A2 fAgA|afec BABc|eA~A2 FECF|EFAB cA~A2|
eA~A2 fAgA|afec BABc|A,CEB dABA|GEFG A4||
c2Ac ecA2|~d2f2 ecA2|~c2Ac ecAB|BABA GBEA|
c2Ac ecAc|~d2fd ecAB|cedf egfa|gbeg a2 (3efg||
aA~A2 eAce|bB~B2 bagf|gebg afge|fB^df e2 (3efg|
aA~A2 eAce|bB~B2 bagf|^defg bgaf|gedB A2 (3Bcd||

